dist/img/svg/icon-menu-blogs.svg

<svg width="12" height="13" viewBox="0 0 12 13" fill="none" xmlns="http://www.w3.org/2000/svg">
<path d="M2.15008 7.25166C2.15008 6.83697 2.1544 6.42229 2.14792 6.00761C2.14576 5.85501 2.19472 5.73916 2.30488 5.63178C4.18332 3.7922 6.06032 1.95261 7.933 0.108085C8.07196 -0.0289656 8.16844 -0.0381494 8.30883 0.101727C8.9021 0.691608 9.50329 1.27301 10.1009 1.85936C10.3867 2.13982 10.6661 2.42734 10.9548 2.70498C11.2017 2.94164 11.2068 2.9374 10.9512 3.18889C9.47593 4.6371 7.99996 6.08461 6.52471 7.53282C6.14312 7.90724 5.75937 8.27953 5.38137 8.65748C5.26618 8.77263 5.14162 8.82703 4.97602 8.82561C4.1394 8.81996 3.30278 8.81502 2.46688 8.82491C2.2156 8.82773 2.13712 8.73448 2.14576 8.49712C2.16016 8.08314 2.15008 7.66775 2.15008 7.25307C2.14864 7.25166 2.15008 7.25166 2.15008 7.25166ZM4.14156 7.48549C4.32804 7.43957 4.58507 7.57309 4.79171 7.36963C6.24536 5.94049 7.70117 4.51277 9.15914 3.08716C9.27577 2.97272 9.27217 2.89289 9.15554 2.78269C8.8769 2.51989 8.59539 2.2585 8.33907 1.97592C8.1742 1.79437 8.077 1.82121 7.91428 1.98158C6.57295 3.30969 5.2309 4.63569 3.87013 5.94403C3.58501 6.21813 3.44173 6.4894 3.47053 6.88713C3.51805 7.54483 3.35318 7.4862 4.14156 7.48549Z" fill="white"/>
<path d="M6.03225 9.59139C7.90205 9.59139 9.77185 9.59139 11.6417 9.59139C11.9808 9.59139 11.9923 9.60198 11.9952 9.92977C11.9973 10.1502 11.9872 10.3713 11.9988 10.591C12.011 10.8178 11.921 10.9011 11.6849 10.899C10.561 10.8905 9.43778 10.8962 8.31388 10.8962C5.68017 10.8962 3.04575 10.8955 0.412039 10.8941C0.00236693 10.8941 -0.001233 10.8891 0.00164694 10.4751C0.00308691 10.2809 0.0131667 10.0866 0.00164694 9.89304C-0.0120328 9.66486 0.0779654 9.58573 0.314121 9.58715C1.67129 9.59562 3.02919 9.59068 4.38636 9.59068C4.93571 9.59139 5.48434 9.59139 6.03225 9.59139Z" fill="white"/>
<path d="M4.41947 11.6649C5.75865 11.6649 7.09782 11.6649 8.437 11.6649C8.79051 11.6649 8.80491 11.6769 8.80707 12.016C8.80851 12.2364 8.79843 12.4575 8.81067 12.6772C8.82435 12.9188 8.71779 13.0015 8.47803 13C7.35486 12.9937 6.23096 12.9986 5.10778 12.9986C3.56197 12.9986 2.01616 12.9979 0.470349 12.9965C0.000198215 12.9958 0.000198225 12.9944 0.00379816 12.5197C0.00523813 12.3346 0.0153179 12.1488 0.00235818 11.9644C-0.0134815 11.7298 0.0916365 11.6613 0.320592 11.662C1.68641 11.6691 3.05294 11.6656 4.41875 11.6656L4.41947 11.6649Z" fill="white"/>
</svg>

<svg width="12" height="13" viewBox="0 0 12 13" fill="none" xmlns="http://www.w3.org/2000/svg"><path d="M2.15 7.252c0-.415.004-.83-.002-1.244a.48.48 0 01.157-.376C4.183 3.792 6.06 1.952 7.933.108c.139-.137.235-.146.376-.006.593.59 1.194 1.171 1.792 1.757.286.28.565.568.854.846.247.237.252.232-.004.484L6.525 7.533c-.382.374-.766.747-1.144 1.124a.53.53 0 01-.405.169 135.05 135.05 0 00-2.51-.001c-.25.003-.329-.09-.32-.328.014-.414.004-.83.004-1.244v-.001zm1.992.233c.186-.045.443.088.65-.115a2249.1 2249.1 0 014.367-4.283c.117-.114.113-.194-.003-.304-.28-.263-.56-.524-.817-.807-.165-.182-.262-.155-.425.006A385.39 385.39 0 013.87 5.944c-.285.274-.428.545-.4.943.048.658-.117.6.672.598zm1.89 2.106h5.61c.339 0 .35.011.353.339.002.22-.008.441.004.661.012.227-.078.31-.314.308-1.124-.008-2.247-.003-3.371-.003-2.634 0-5.268 0-7.902-.002-.41 0-.413-.005-.41-.419.001-.194.011-.388 0-.582-.014-.228.076-.307.312-.306 1.357.009 2.715.004 4.072.004h1.646zM4.42 11.665h4.017c.354 0 .368.012.37.351.002.22-.009.441.004.661.013.242-.093.325-.333.323-1.123-.006-2.247-.001-3.37-.001L.47 12.996c-.47 0-.47-.002-.466-.476.001-.185.011-.371-.002-.556-.015-.234.09-.303.319-.302 1.365.007 2.732.004 4.098.004v-.001z" fill="#fff"/></svg>
